projects/packages/jetpack-mu-wpcom/src/assets/images/preview.svg

<svg fill="none" height="442" viewBox="0 0 534 442" width="534" xmlns="http://www.w3.org/2000/svg"><path d="m0 0h534v442h-534z" fill="#1381d8"/><path d="m76 62.9764c0-1.6439 1.5792-2.9764 3.5276-2.9764h373.9234c1.95 0 3.528 1.3325 3.528 2.9764v378.0026h-380.979z" fill="#fff"/><g fill="#e2e4e7"><path d="m295.979 95.0693h-35.069v12.7527h35.069z"/><path d="m340.613 95.0693h-35.069v12.7527h35.069z"/><path d="m385.247 95.0693h-35.07v12.7527h35.07z"/><path d="m429.88 95.0693h-36.663v12.7527h36.663z"/></g><path d="m115.851 115.792c7.924 0 14.347-6.423 14.347-14.346 0-7.9237-6.423-14.3469-14.347-14.3469-7.923 0-14.346 6.4232-14.346 14.3469 0 7.923 6.423 14.346 14.346 14.346z" fill="#1e1e1e"/><path d="m456.979 144.485h-380.979v200.851h380.979z" fill="#e2e4e7"/><path d="m248.158 374.029h-172.158v66.95h172.158z" fill="#e2e4e7"/><path d="m334.237 257.663h-205.633v25.505h205.633z" fill="#fff"/><path d="m192.366 294.326h-63.762v14.347h63.762z" fill="#fff"/><path d="m405.969 386.781h-135.494v12.753h135.494z" fill="#e2e4e7"/><path d="m405.969 407.504h-135.494v12.752h135.494z" fill="#e2e4e7"/><path d="m338.71 428.227h-68.235v12.752h68.235z" fill="#e2e4e7"/></svg>

<svg width="534" height="442" viewBox="0 0 534 442" fill="none" xmlns="http://www.w3.org/2000/svg">
<path d="M0 0H534V442H0V0Z" fill="#1381D8"/>
<path d="M76 62.9764C76 61.3325 77.5792 60 79.5276 60H453.451C455.401 60 456.979 61.3325 456.979 62.9764V440.979H76V62.9764Z" fill="white"/>
<path d="M295.979 95.0693H260.91V107.822H295.979V95.0693Z" fill="#E2E4E7"/>
<path d="M340.613 95.0693H305.544V107.822H340.613V95.0693Z" fill="#E2E4E7"/>
<path d="M385.247 95.0693H350.177V107.822H385.247V95.0693Z" fill="#E2E4E7"/>
<path d="M429.88 95.0693H393.217V107.822H429.88V95.0693Z" fill="#E2E4E7"/>
<path d="M115.851 115.792C123.775 115.792 130.198 109.369 130.198 101.446C130.198 93.5223 123.775 87.0991 115.851 87.0991C107.928 87.0991 101.505 93.5223 101.505 101.446C101.505 109.369 107.928 115.792 115.851 115.792Z" fill="#1E1E1E"/>
<path d="M456.979 144.485H76V345.336H456.979V144.485Z" fill="#E2E4E7"/>
<path d="M248.158 374.029H76V440.979H248.158V374.029Z" fill="#E2E4E7"/>
<path d="M334.237 257.663H128.604V283.168H334.237V257.663Z" fill="white"/>
<path d="M192.366 294.326H128.604V308.673H192.366V294.326Z" fill="white"/>
<path d="M405.969 386.781H270.475V399.534H405.969V386.781Z" fill="#E2E4E7"/>
<path d="M405.969 407.504H270.475V420.256H405.969V407.504Z" fill="#E2E4E7"/>
<path d="M338.71 428.227H270.475V440.979H338.71V428.227Z" fill="#E2E4E7"/>
</svg>
